X: 120871
T: Leitrim Bucks
S: "First Collection of Traditional Irish Music" (M.Mulvihill)
Z: B.Black
L: 1/8
M: 4/4
R: reel
K: Edor
A2 FA AD (3FED|A2 FA BcdB|A2 FA AD (3FED|EFGA BE (3EDE:|
dcBc d2 Bc|d2 cA BE (3EDE|dcBA BAGF|EFGA BE (3EDE :|
dcBc d2 Bc|d2 cA BE (3EDE|dcBA BAGF|EFGA BE (3EDE :|
fa (3aga afdf|a2 fd eB (3BAB|fa (3aga afdf|defd eB (3BAB|
fa (3aga afdf|a2 fd eB (3BAB|fa (3aga afdf|defd e2 de||
f3 g fede|f2 df eB (3BAB|f3 d e2 fe|d2 fd eB (3BAB|
f3 g fede|f2 df eB (3BAB|f3 d e2 fe|defd e2 dB||
